!! 00000] TT[WS
!!!OTL: Manman pin qinqin xin haolan
!!!ARE: Asia, China, Shanxi Hequ
!! Ethnic Group: Han
!! WII, 20
!!!SCT: J0424
!!!YEM: Copyright 1995, estate of Helmut Schaffrath.
**kern
*ICvox
*Ivox
*M2/4
*k[b-e-a-d-g-]
*D-:
{8b-
8a-
4b-
=1
8a-
8ff
8ee-
8dd-
=2
8f
16f
16a-
8e-
8d-
=3
2B-}
=4
{8b-
8a-
4b-
=5
8a-
8ff
8ee-
8dd-
=6
8.f
16a-
8e-
8d-
=7
2e-}
==
!!!AGN: Shange, Shanqu. Qingge
!!!ONB: ESAC (Essen Associative Code) Database: CHINA
!!!AMT: simple duple
!!!AIN: vox
!!!EED: Helmut Schaffrath
!!!EEV: 1.0
*-
